www/assets/icons/phone_disabled.svg

<svg width="24" height="24" viewBox="0 0 24 24" xmlns="http://www.w3.org/2000/svg" fill='currentColor'><path d="M18.05 13.8301L16.62 12.4001C17.18 11.6701 17.67 10.9001 18.09 10.0801L15.89 7.8801C15.61 7.6001 15.53 7.2101 15.64 6.8601C16.01 5.7401 16.21 4.5401 16.21 3.2901C16.21 2.7401 16.66 2.2901 17.21 2.2901H20.71C21.26 2.2901 21.71 2.7401 21.71 3.2901C21.71 7.2701 20.34 10.9301 18.05 13.8301ZM15.23 16.6401C12.34 18.9301 8.67998 20.2901 4.70998 20.2901C4.15998 20.2901 3.70998 19.8401 3.70998 19.2901V15.8001C3.70998 15.2501 4.15998 14.8001 4.70998 14.8001C5.94998 14.8001 7.15998 14.6001 8.27998 14.2301C8.62998 14.1101 9.02998 14.2001 9.29998 14.4701L11.5 16.6701C12.31 16.2501 13.08 15.7701 13.8 15.2101L2.09998 3.5101L3.51998 2.1001L21.9 20.4901L20.49 21.9001L15.23 16.6401Z"/></svg>

<svg xmlns="http://www.w3.org/2000/svg" width="24" height="24" viewBox="0 0 24 24" fill='currentColor'><path d="m18.05 13.83-1.43-1.43c.56-.73 1.05-1.5 1.47-2.32l-2.2-2.2c-.28-.28-.36-.67-.25-1.02.37-1.12.57-2.32.57-3.57 0-.55.45-1 1-1h3.5c.55 0 1 .45 1 1 0 3.98-1.37 7.64-3.66 10.54m-2.82 2.81a16.9 16.9 0 0 1-10.52 3.65c-.55 0-1-.45-1-1V15.8c0-.55.45-1 1-1 1.24 0 2.45-.2 3.57-.57.35-.12.75-.03 1.02.24l2.2 2.2c.81-.42 1.58-.9 2.3-1.46L2.1 3.51 3.52 2.1 21.9 20.49l-1.41 1.41z"/></svg>
